X:5758
T:Gan Ainm
R:Jig
S:
H:
N:
D:concertina recital Milltown 1992
Z:Adrian Scahill
M:6/8
L:1/8
K:C
C|ADD DCD|EGG A2B|cBc AcA|GED C2A,|\
D3 DCD|EGG A2B|cBA GEC|1 D3 D2C:|2 D3 D2G||\
Add dcd|dcd e2d|cBc AcA|GED CEG|\
Add dcd|dcd e2d|cBA GEC|D3 D2G:||


